X: 495
T: Bülbül-Âsâ Rûz ü Şeb...
C: Dellalzâde İsmail Efendi
O: Turkey
F: http://compmusic.upf.edu/node/140
N: evic--sarki--agiraksak--bulbul_asa--dellalzade_haci_ismail_efendi
N: makam= evic
N: form= sarki
N: usul= agiraksak = 9/4
M: 9/4
L: 1/16
K: C _1/4B ^f ^c 
Q: 1/4=72
%%MIDI tuningsystem comma53
gf^3/4ef g2a2 ^3/4f3/2=e/fg e3/2d/e^1/4f d3/2c/de c3/2B/cd B3/2A/Bc A2B2 A2G2  | 
w:  ARANAĞME  | 
FF2G A2_2/4B2 =cde=f edcB A3_1/4B AGGF F4 d3/2^c/d^3/4e ^f4  | 
w:   | 
gf^3/4ef g2a2 ^3/4f3/2=e/fg e3/2d/e^1/4f d3/2c/de c3/2B/cd B3/2A/Bc A2B2 A2G2  | 
w:  ARANAĞME  | 
FF2G A2_2/4B2 =cde=f edcB A3_1/4B AGGF F6^fg f^3/4ede  | 
w:   | 
f3/2^3/4e/fg fga2 a3g g3f f2g2 f2e2 f3/2g/fe d4 e2f2  | 
w:  *  *  *  *  *  *  *  Bül *  bül  *  â *  *  *  sâ   | 
^3/4edc^B c6d4e2 f2g2 e2f2 e3/2f/e2 f8  | \
w:  *  *  *  *  *  rûz_ ü  şeb  *  *  *  kâ  | 
f2f4a2 g4 a2b2 abag f4 g2a2 g2f2 g2a2  | 
w:  *  rım  *  *  *  *  *  *  *  *  *  *  *  *  *  ne  | 
g4 a4 a2d'2 =c'2b2 b2a4g2 f3^3/4e d4 =e2f2  | \
w:  vâ  *  *  *  *  *  *  câ *  nım  *  *  ah    | 
g2a2 g2^3/4f2 z2ef e2f2 g2a2 g2f2 a3/2b/ag ^f2a2 g2ab  | 
w:  *  *  *  *  Müp *  *  te lâ *  *  *  yım   | 
a2ga g2^3/4f2 z2e4f2 g3/2a/gf g2ab agfe d4 c4  | 
w:  *  *  *  *  *  müp te lâ *  *  *  *  *  *  yım   | 
d4 f3e d2g2 gf{g}f{g}e d2b2 baag gffe d4 e=fed  | 
w:  müp *  *  *  *  *  *  *  *  *  *  *  *  *  *  *  *  *  *  *  *  *  te  | 
c4 d4 cde^3/4f g2=fe ed2c cB{e}dc c8 ABcd  | 
w:  lâ  *  SAZ  | 
e2d2 =c2B2 B2A2 {B}A2B2 A2G4F2 z2c2 B2A2 A2B2  | \
w:  ah  *  *  *  *  *  *  *  *  *  *  *  ben  *  *  sa  | 
{B}A2G6 G2A2 G2F2 F3^3/4E {F}DEFG E2F4ab agfg  | 
w:  *  na  *  *  *  *  *  câ *  *  *  *  *  *  nım   *  SAZ  | 
aABc defg a2ag {a}f2g2 a8-a2d'4=c'b ba2g  | 
w:  *  *  *  *  *  *  *  *  *  Söy *  *  *  le sin  ey   | 
agf^3/4e f4 z2a4b2 {b}a2g4f2 agfe f8  | \
w:  *  *  *  *  *  gül  sa *  na  *  *  bâd_  | 
f2f4a2 g4 a2b2 a3g f4 g2a2 g2f2 g2a2  | 
w:  *  ı  *  *  *  *  *  *  *  *  *  *  *  sa  | 
g4 a4 a2d'2 =c'2b2 b2a4g2 f3e d4 e2f2  | \
w:  bâ  *  *  *  *  *  *  câ *  nım  *  *  ah    | 
g2a2 g2^3/4f2 z2ef e2f2 g2a2 g2f2 a3/2b/ag ^f2a2 g2ab  | 
w:  *  *  *  *  Müp *  *  te lâ *  *  *  yım   | 
a2ga g2^3/4f2 z2e4f2 g3/2a/gf g2ab agfe d4 c4  | 
w:  *  *  *  *  *  müp te lâ *  *  *  *  *  *  yım   | 
d4 f3e d2g2 gf{g}f{g}e d2b2 baag gffe d4 e=fed  | 
w:  müp *  *  *  *  *  *  *  *  *  *  *  *  *  *  *  *  *  *  *  *  *  te  | 
c4 d4 cde^3/4f g2=fe ed2c cB{e}dc c8 ABcd  | 
w:  lâ  *  SAZ  | 
e2d2 =c2B2 B2A2 {B}A2B2 A2G4F2 z2c2 B2A2 A2B2  | \
w:  ah  *  *  *  *  *  *  *  *  *  *  *  ben  *  *  sa  | 
A2G6 G2A2 G2F2 F3^3/4E DEFG E2F2 F8  | 
w:  na  KARAR *  *  *  *  câ *  *  *  *  *  *  *  nım    | 
|


